X:057
T:Gavotte by Correlli,A TS.057
M:C|
L:1/4
Q:1/2=70
S:Thomas Sands’ MS,1810,Lincolnshire
R:gavotte
C:Correlli
O:England;Lincolnshire
Z:vmp.Ruairidh Greig, 2011
K:G
baba|gfgf|gded|cBAD|d3D|c3B|
EAFG|GFG2|gbad|g>ggf|Be^cd|d^cd2|
gded|eded|gdeG|c3B|EAFG|GFG2:|
|:be^de|be^de|ad^cd|ad^cd|fbgb|f^abd|
fe/d/^cd|^c2B2|d3c|cBcA|c3B|A>GFD|
d3G|c3B|EAFG|GFGe|c2z=c|B2zA|
GeFG|GFGe|d2zc|B2zA|GeFG|GFG2:|]

